src/icons/3x1.svg

<svg xmlns="http://www.w3.org/2000/svg" width="512" height="512" viewBox="0 0 512 512">
    <path d="M96 320.9h320v88.6H96v-88.6zm0-115.7h320v88.6H96v-88.6zm0-115.7h320v88.6H96V89.5z"/>
</svg>

<?xml version="1.0" encoding="UTF-8"?>
<svg width="512px" height="512px" viewBox="0 0 512 512" version="1.1" xmlns="http://www.w3.org/2000/svg" xmlns:xlink="http://www.w3.org/1999/xlink">
    <!-- Generator: Sketch 62 (91390) - https://sketch.com -->
    <title>3x1</title>
    <desc>Created with Sketch.</desc>
    <g id="3x1" stroke="none" stroke-width="1" fill="none" fill-rule="evenodd">
        <path d="M96,320.9 L416,320.9 L416,409.5 L96,409.5 L96,320.9 Z M96,205.2 L416,205.2 L416,293.8 L96,293.8 L96,205.2 Z M96,89.5 L416,89.5 L416,178.1 L96,178.1 L96,89.5 Z" id="Shape" fill="#000000" fill-rule="nonzero"></path>
    </g>
</svg>
